public/svg/driebit.svg

<svg height="38" viewBox="0 0 141 38" width="141" xmlns="http://www.w3.org/2000/svg"><g fill="none" fill-rule="evenodd" transform="translate(.328125)"><g fill="#fff"><path d="m62.2517292 14.4982667c-2.2824498 0-4.3296658.9643555-5.7691944 2.4970222v-9.53377779h-2.1205134v14.85208889c0 4.3159556 3.5327686 7.8144889 7.8897078 7.8144889 4.3552346 0 7.8880032-3.4985333 7.8880032-7.8144889 0-4.3168-3.5327686-7.8153333-7.8880032-7.8153333zm0 13.5128c-3.1756564 0-5.7495916-2.5527556-5.7495916-5.6974667 0-3.1464 2.5739352-5.6991556 5.7495916-5.6991556 3.1739518 0 5.7487392 2.5527556 5.7487392 5.6991556 0 3.1447111-2.5747874 5.6974667-5.7487392 5.6974667z"/><path d="m.20455114 22.3136c0 4.3159556 3.53276858 7.8144889 7.88800319 7.8144889 4.35693917 0 7.88885547-3.4985333 7.88885547-7.8144889v-14.85208889h-2.1196611v9.53377779c-1.4395286-1.5326667-3.4875969-2.4970222-5.76919437-2.4970222-4.35523461 0-7.88800319 3.4985333-7.88800319 7.8153333zm2.13841167 0c0-3.1464 2.57563972-5.6991556 5.74959152-5.6991556 3.17565637 0 5.75044387 2.5527556 5.75044387 5.6991556 0 3.1447111-2.5747875 5.6974667-5.75044387 5.6974667-3.1739518 0-5.74959152-2.5527556-5.74959152-5.6974667z"/><path d="m19.8908934 19.4686667c0-1.3190223-.0622176-2.4455111-.1278444-4.5752h2.0548866v2.7216444h.0630699c.6000167-1.5630667 2.1520484-3.0991111 4.7438818-3.0991111.6034258 0 1.1088376.0641778 1.5494748.1891556l-.4091022 2.0351111c-.2548367-.0962667-.632404-.1545334-1.2025903-.1545334-3.1628719 0-4.5870592 3.1607556-4.5870592 5.1359111v7.8322223h-2.084717z"/><path d="m32.0548677 12.2115111c-.7568392 0-1.5170876-.6257333-1.5170876-1.5039555 0-.87568893.7602484-1.5039556 1.5170876-1.5039556.7602484 0 1.521349.62826667 1.521349 1.5039556 0 .8782222-.7611006 1.5039555-1.521349 1.5039555zm-1.0406539 2.6819556h2.084717v14.6604h-2.084717z"/><path d="m38.8255103 22.7864889c.253132 2.9445778 2.4963761 5.2617333 5.4393556 5.2617333 2.2117092 0 3.9197112-1.2168444 4.7455864-2.5350222l1.6099879 1.3181778c-1.7378324 2.1904889-3.9222681 3.0999555-6.3555743 3.0999555-4.3969971 0-7.6536217-3.2865777-7.6536217-7.7064 0-4.4206666 3.2566246-7.7089333 7.4644119-7.7089333 4.4873406.0287111 7.0808785 3.3195111 7.0808785 7.3297778v.9407111zm10.0570975-1.6914222c0-2.7900445-1.8034592-4.7001778-4.8069517-4.7001778-2.7239393 0-5.1870759 2.2901333-5.1870759 4.7001778z"/><path d="m74.4702504 12.2115111c-.7576915 0-1.5162353-.6257333-1.5162353-1.5039555 0-.87568893.7585438-1.5039556 1.5162353-1.5039556.7628053 0 1.5170876.62826667 1.5170876 1.5039556 0 .8782222-.7542823 1.5039555-1.5170876 1.5039555zm-1.0423585 2.6819556h2.0855693v14.6604h-2.0855693z"/><path d="m88.4129672 16.7715111h-4.2691527v8.6454222c0 2.1938667.8548533 2.6312889 2.1503439 2.6312889.7287134 0 1.5196444-.2170222 2.1503438-.5598666l.0963095 1.9109777c-.7585438.3411556-1.7727765.532-2.815135.532-1.5818622 0-3.6691361-.6890666-3.6691361-3.9182222v-9.2416h-3.2745227v-1.8780444h3.2745227v-5.15702226h2.0872739v5.15702226h4.2691527z"/></g><path d="m136.090428 12.9326667c-6.490237-7.5898667-15.138489-14.28462226-22.785292-11.83911114-6.15358 1.9684-11.355145 12.63795554-11.9509 22.57791114-1.023608 17.0907111 13.195253 14.8048 22.786996 11.8399555 9.590039-2.9656889 23.513153-9.0549778 11.949196-22.5787555" fill="#97c93c"/><path d="m122.910516 14.3395111c-.444898-.1030222-.900025-.1883111-1.360265-.2558667-6.950477-10.5496444-10.669046 5.6189334-3.664022 9.5937334-11.265654-6.3949778-1.990112-29.88151113 5.024287-9.3378667z" fill="#fff"/><path d="m122.910516 14.3395111c-.444898-.1030222-.900025-.1883111-1.360265-.2558667-6.950477-10.5496444-10.669046 5.6189334-3.664022 9.5937334-11.265654-6.3949778-1.990112-29.88151113 5.024287-9.3378667z" stroke="#fff" stroke-linecap="round" stroke-linejoin="round" stroke-width="1.228"/><path d="m111.716455 20.5698222c.128697.6096889.313645 1.1602667.559959 1.7437778-3.486744 6.2387556.705702 7.0832 4.632231 5.3048 3.045255-1.3781333 6.202161-4.3548 6.291652-7.5484889-.364783 13.0238667-24.2563555 16.4354222-11.483842.4999111z" fill="#fff"/><path d="m111.716455 20.5698222c.128697.6096889.313645 1.1602667.559959 1.7437778-3.486744 6.2387556.705702 7.0832 4.632231 5.3048 3.045255-1.3781333 6.202161-4.3548 6.291652-7.5484889-.364783 13.0238667-24.2563555 16.4354222-11.483842.4999111z" stroke="#fff" stroke-linecap="round" stroke-linejoin="round" stroke-width="1.228"/><path d="m123.853156 26.6109778c.438933-.3673334.782408-.798 1.173612-1.2252889 13.420259-2.5206667-.619619-10.4288889-7.497651-7.9470667 11.895501-4.2923111 27.939128 11.0808 6.324039 9.1723556z" fill="#fff"/><path d="m123.853156 26.6109778c.438933-.3673334.782408-.798 1.173612-1.2252889 13.420259-2.5206667-.619619-10.4288889-7.497651-7.9470667 11.895501-4.2923111 27.939128 11.0808 6.324039 9.1723556z" stroke="#fff" stroke-linecap="round" stroke-linejoin="round" stroke-width="1.228"/></g></svg>

<?xml version="1.0" encoding="UTF-8" standalone="no"?>
<svg width="141px" height="38px" viewBox="0 0 141 38" version="1.1" xmlns="http://www.w3.org/2000/svg" xmlns:xlink="http://www.w3.org/1999/xlink" xmlns:sketch="http://www.bohemiancoding.com/sketch/ns">
    <!-- Generator: Sketch 3.3.1 (12002) - http://www.bohemiancoding.com/sketch -->
    <title>logo Driebit</title>
    <desc>Created with Sketch.</desc>
    <defs></defs>
    <g id="Desktop-1024-" stroke="none" stroke-width="1" fill="none" fill-rule="evenodd" sketch:type="MSPage">
        <g id="home-Desktop" sketch:type="MSArtboardGroup" transform="translate(-57.000000, -37.000000)">
            <g id="main-menu-copy-2" sketch:type="MSLayerGroup" transform="translate(42.000000, 37.000000)">
                <g id="logo-Driebit" transform="translate(15.328125, 0.000000)" sketch:type="MSShapeGroup">
                    <path d="M62.2517292,14.4982667 C59.9692794,14.4982667 57.9220634,15.4626222 56.4825348,16.9952889 L56.4825348,7.46151111 L54.3620214,7.46151111 L54.3620214,22.3136 C54.3620214,26.6295556 57.89479,30.1280889 62.2517292,30.1280889 C66.6069638,30.1280889 70.1397324,26.6295556 70.1397324,22.3136 C70.1397324,17.9968 66.6069638,14.4982667 62.2517292,14.4982667 L62.2517292,14.4982667 Z M62.2517292,28.0110667 C59.0760728,28.0110667 56.5021376,25.4583111 56.5021376,22.3136 C56.5021376,19.1672 59.0760728,16.6144444 62.2517292,16.6144444 C65.425681,16.6144444 68.0004684,19.1672 68.0004684,22.3136 C68.0004684,25.4583111 65.425681,28.0110667 62.2517292,28.0110667 L62.2517292,28.0110667 Z" id="Fill-1" fill="#FFFFFF"></path>
                    <path d="M0.204551136,22.3136 C0.204551136,26.6295556 3.73731972,30.1280889 8.09255433,30.1280889 C12.4494935,30.1280889 15.9814098,26.6295556 15.9814098,22.3136 L15.9814098,7.46151111 L13.8617487,7.46151111 L13.8617487,16.9952889 C12.4222201,15.4626222 10.3741518,14.4982667 8.09255433,14.4982667 C3.73731972,14.4982667 0.204551136,17.9968 0.204551136,22.3136 L0.204551136,22.3136 Z M2.34296281,22.3136 C2.34296281,19.1672 4.91860253,16.6144444 8.09255433,16.6144444 C11.2682107,16.6144444 13.8429982,19.1672 13.8429982,22.3136 C13.8429982,25.4583111 11.2682107,28.0110667 8.09255433,28.0110667 C4.91860253,28.0110667 2.34296281,25.4583111 2.34296281,22.3136 L2.34296281,22.3136 Z" id="Fill-2" fill="#FFFFFF"></path>
                    <path d="M19.8908934,19.4686667 C19.8908934,18.1496444 19.8286758,17.0231556 19.763049,14.8934667 L21.8179356,14.8934667 L21.8179356,17.6151111 L21.8810055,17.6151111 C22.4810222,16.0520444 24.0330539,14.516 26.6248873,14.516 C27.2283131,14.516 27.7337249,14.5801778 28.1743621,14.7051556 L27.7652599,16.7402667 C27.5104232,16.644 27.1328559,16.5857333 26.5626696,16.5857333 C23.3997977,16.5857333 21.9756104,19.7464889 21.9756104,21.7216444 L21.9756104,29.5538667 L19.8908934,29.5538667 L19.8908934,19.4686667" id="Fill-3" fill="#FFFFFF"></path>
                    <path d="M32.0548677,12.2115111 C31.2980285,12.2115111 30.5377801,11.5857778 30.5377801,10.7075556 C30.5377801,9.83186667 31.2980285,9.2036 32.0548677,9.2036 C32.8151161,9.2036 33.5762167,9.83186667 33.5762167,10.7075556 C33.5762167,11.5857778 32.8151161,12.2115111 32.0548677,12.2115111 L32.0548677,12.2115111 Z M31.0142138,14.8934667 L33.0989308,14.8934667 L33.0989308,29.5538667 L31.0142138,29.5538667 L31.0142138,14.8934667 Z" id="Fill-4" fill="#FFFFFF"></path>
                    <path d="M38.8255103,22.7864889 C39.0786423,25.7310667 41.3218864,28.0482222 44.2648659,28.0482222 C46.4765751,28.0482222 48.1845771,26.8313778 49.0104523,25.5132 L50.6204402,26.8313778 C48.8826078,29.0218667 46.6981721,29.9313333 44.2648659,29.9313333 C39.8678688,29.9313333 36.6112442,26.6447556 36.6112442,22.2249333 C36.6112442,17.8042667 39.8678688,14.516 44.0756561,14.516 C48.5629967,14.5447111 51.1565346,17.8355111 51.1565346,21.8457778 L51.1565346,22.7864889 L38.8255103,22.7864889 L38.8255103,22.7864889 Z M48.8826078,21.0950667 C48.8826078,18.3050222 47.0791486,16.3948889 44.0756561,16.3948889 C41.3517168,16.3948889 38.8885802,18.6850222 38.8885802,21.0950667 L48.8826078,21.0950667 L48.8826078,21.0950667 Z" id="Fill-5" fill="#FFFFFF"></path>
                    <path d="M74.4702504,12.2115111 C73.7125589,12.2115111 72.9540151,11.5857778 72.9540151,10.7075556 C72.9540151,9.83186667 73.7125589,9.2036 74.4702504,9.2036 C75.2330557,9.2036 75.987338,9.83186667 75.987338,10.7075556 C75.987338,11.5857778 75.2330557,12.2115111 74.4702504,12.2115111 L74.4702504,12.2115111 Z M73.4278919,14.8934667 L75.5134612,14.8934667 L75.5134612,29.5538667 L73.4278919,29.5538667 L73.4278919,14.8934667 Z" id="Fill-6" fill="#FFFFFF"></path>
                    <path d="M88.4129672,16.7715111 L84.1438145,16.7715111 L84.1438145,25.4169333 C84.1438145,27.6108 84.9986678,28.0482222 86.2941584,28.0482222 C87.0228718,28.0482222 87.8138028,27.8312 88.4445022,27.4883556 L88.5408117,29.3993333 C87.7822679,29.7404889 86.7680352,29.9313333 85.7256767,29.9313333 C84.1438145,29.9313333 82.0565406,29.2422667 82.0565406,26.0131111 L82.0565406,16.7715111 L78.7820179,16.7715111 L78.7820179,14.8934667 L82.0565406,14.8934667 L82.0565406,9.73644444 L84.1438145,9.73644444 L84.1438145,14.8934667 L88.4129672,14.8934667 L88.4129672,16.7715111" id="Fill-7" fill="#FFFFFF"></path>
                    <path d="M136.090428,12.9326667 C129.600191,5.3428 120.951939,-1.35195556 113.305136,1.09355556 C107.151556,3.06195556 101.949991,13.7315111 101.354236,23.6714667 C100.330628,40.7621778 114.549489,38.4762667 124.141232,35.5114222 C133.731271,32.5457333 147.654385,26.4564444 136.090428,12.9326667" id="Fill-8" fill="#97C93C"></path>
                    <path d="M122.910516,14.3395111 C122.465618,14.2364889 122.010491,14.1512 121.550251,14.0836444 C114.599774,3.534 110.881205,19.7025778 117.886229,23.6773778 C106.620575,17.2824 115.896117,-6.20413333 122.910516,14.3395111 L122.910516,14.3395111 Z" id="Fill-9" fill="#FFFFFF"></path>
                    <path d="M122.910516,14.3395111 C122.465618,14.2364889 122.010491,14.1512 121.550251,14.0836444 C114.599774,3.534 110.881205,19.7025778 117.886229,23.6773778 C106.620575,17.2824 115.896117,-6.20413333 122.910516,14.3395111 L122.910516,14.3395111 Z" id="Stroke-10" stroke="#FFFFFF" stroke-width="1.228" stroke-linecap="round" stroke-linejoin="round"></path>
                    <path d="M111.716455,20.5698222 C111.845152,21.1795111 112.0301,21.7300889 112.276414,22.3136 C108.78967,28.5523556 112.982116,29.3968 116.908645,27.6184 C119.9539,26.2402667 123.110806,23.2636 123.200297,20.0699111 C122.835514,33.0937778 98.9439415,36.5053333 111.716455,20.5698222 L111.716455,20.5698222 Z" id="Fill-11" fill="#FFFFFF"></path>
                    <path d="M111.716455,20.5698222 C111.845152,21.1795111 112.0301,21.7300889 112.276414,22.3136 C108.78967,28.5523556 112.982116,29.3968 116.908645,27.6184 C119.9539,26.2402667 123.110806,23.2636 123.200297,20.0699111 C122.835514,33.0937778 98.9439415,36.5053333 111.716455,20.5698222 L111.716455,20.5698222 Z" id="Stroke-12" stroke="#FFFFFF" stroke-width="1.228" stroke-linecap="round" stroke-linejoin="round"></path>
                    <path d="M123.853156,26.6109778 C124.292089,26.2436444 124.635564,25.8129778 125.026768,25.3856889 C138.447027,22.8650222 124.407149,14.9568 117.529117,17.4386222 C129.424618,13.1463111 145.468245,28.5194222 123.853156,26.6109778 L123.853156,26.6109778 Z" id="Fill-13" fill="#FFFFFF"></path>
                    <path d="M123.853156,26.6109778 C124.292089,26.2436444 124.635564,25.8129778 125.026768,25.3856889 C138.447027,22.8650222 124.407149,14.9568 117.529117,17.4386222 C129.424618,13.1463111 145.468245,28.5194222 123.853156,26.6109778 L123.853156,26.6109778 Z" id="Stroke-14" stroke="#FFFFFF" stroke-width="1.228" stroke-linecap="round" stroke-linejoin="round"></path>
                </g>
            </g>
        </g>
    </g>
</svg>
